X:120
T:It Came Upon the Midnight Clear
C:Richard S. Willis
A:Edmund Sears
L:1/4
M:6/8
Q: 1/4=80
P:BABABAB
V:S
%%MIDI program 1 19 % Church Organ
V:A
%%MIDI program 2 60 %French Horn
V:T clef=treble_8
%%MIDI program 3 57 %Trombone
%%score (S A) T
K:Gmaj
P:A
[V:S]
D/2 | B A/2 (A/2G/2) E/2 | D E/2 D D/2 | (E/2F/2) G/2 (G/2A/2) B/2 | A3/2-A D/2 |
B F/2 (A/2G/2) E/2 | D E/2 D D/2 | E E/2 (F/2E/2) D/2 | G3/2-G B/2 |
B B,/2 (B,/2^C/2) ^D/2 | E F/2 G B/2 | (A/2G/2) F/2 (E/2F/2) E/2 | D3/2-D D/2 |
%
[V:A]
B,/2 | B, B,/2 C C/2 | B, C/2 B, B,/2 | C C/2 ^C C/2 | D3/2-D D/2 | B, B,/2 C C/2 | B, C/2 B, D/2 | C C/2 C C/2 | B,3/2-B, B,/2 | B, B,/2 (B,/2^C/2) B,/2 | B, B,/2 B, B,/2 | D D/2 ^C C/2 | D3/2-D C/2 |
%
w:1~It came up-on the mid-night clear, That glor-ious song of old,_ From an-gels bend-ing near the earth, To touch their harps of gold:_ "Peace on the earth,_ good-will to men, From heaven's all-gra-cious King."_ The
%
w:2~Still through the clo-ven skies they come, With peace-ful wings un-furled,_ And still their heaven-ly mu-sic floats O'er all the wear-y world;_ A-bove its sad_ and low-ly plains, They bend on ho-vering wing,_ And
%
w:3~For lo!, the days are hast-ening on, By pro-phet bards fore-told,_ When with the e-ver-cir-cling years Comes round the age of gold_ When peace shall o_ver all the earth Its an-cient splen-dors fling,_ And 
%
[V:T] D,/2 | D, ^D,/2 E, F,/2 | G, D,/2 D, G,/2 | G, G,/2 G, G,/2 | F,3/2-F, D,/2 | D, ^D,/2 E, F,/2 | G, D,/2 D, G,/2 | G, A,/2 (A,/2G,/2) F,/2 | G,3/2-G, B,,/2 | B,, ^D,/2 (D,/2E,/2) F,/2 | E, ^D,/2 E, E,/2 | (F,/2B,/2) A,/2 (G,/2A,/2) G,/2 | F,3/2-F, F,/2 |
P:B
[V:S]
B F/2 (A/2G/2) E/2 | D E/2 D D/2 | E E/2 (F/2E/2) D/2 | G3/2-G|]
%
[V:A]
B, B,/2 C C/2 | B, C/2 B, D/2 | C C/2 C C/2 | B,3/2-B,|]
w: world in sol-emn still-ness lay, To hear the an-gels sing._
w: e-ver o'er its ba-bel sounds The bles-sed an-gels sing._
w: the whole world give back the song Which now the an-gels sing._
%
[V:T]
G, ^D,/2 E, F,/2 | G, D,/2 D, G,/2 | G, A,/2 (A,/2G,/2) F,/2 | G,3/2-G,|]


